X:1
T:Title
%%score 1 2
L:1/8
Q:1/4=90
M:4/4
K:G
V:1 treble nm="Strings 1, Soprano"
V:2 bass nm="Strings 1, Bass"
V:1
 z4 z2 [G,B,][B,D] | [B,G]2 [B,D][B,G] [DB]2 [B,G][DB] | [Dd]2 [Dd][GB] [Gd]2 [Ge][Gd] | %3
w: 1.~I~ have~|wan dered~ in~ sin,~ and~ my~|soul~ is~ de filed,~ But~ I~|
 [GB]2 [GB][DA] [DG]2 [GB][GB] | [FA]6 [G,B,][B,D] | [B,G]2 [B,D][B,G] [DB]2 [B,G][DB] | %6
w: know~ Je sus~ died~ on~ the~|tree;~ And~ the~|Fa ther~ in~ mer cy~ will~|
 [Dd]2 [Dd][GB] [Gd]2 [Ge][Gd] | [GB]2 [GB]G [GB]2 [FA][DA] | [DG]6 [Bd][ce] | [Bd]6 [GB][Ac] | %10
w: make~ me~ His~ child,~ For~ the~|blood,~ it~ will~ cleanse~ e ven~|me.~ * *||
 [GB]6 [Ge][Gd] | [GB]2 [GB][DA] [DG]2 [GB][GB] | [FA]6 [Bd][ce] | [Bd]6 [GB][Ac] | %14
w: ||||
 [GB]6 [Ge][Gd] | [GB]2 [GB]G [GB]2 [FA][DA] | [DG]6 z2 |] %17
w: |||
V:2
 z4 z2 [G,,D,][G,,D,] | [G,,D,]2 [G,,G,][G,,G,] [G,,G,]2 G,G, | %2
 [G,B,]2 [G,B,][G,D] [G,B,]2 [G,C][G,B,] | [G,D]2 [G,D][G,C] [G,B,]2 [G,D][G,D] | [D,D]6 D,D, | %5
 [G,,D,]2 [G,,G,][G,,G,] [G,,G,]2 G,G, | [G,B,]2 [G,B,][G,D] [G,B,]2 [G,C][G,B,] | %7
 [G,D]2 [G,D][B,,D] [D,D]2 [D,C][D,C] | [G,,G,B,]6 z2 | z2 G,G, G,2 z2 | %10
 z2 [G,D][G,D] [G,D]2 [G,C][G,B,] | [G,D]2 [G,D][G,C] [G,B,]2 [G,D][G,D] | [D,D]6 z2 | %13
 z2 G,G, G,2 z2 | z2 [G,D][G,D] [G,D]2 [G,C][G,B,] | [G,D]2 [G,D][B,,D] [D,D]2 [D,C][D,C] | %16
 [G,,G,B,]6 z2 |] %17

